X:4921
T:Paddy Fahy's 1
O:england
R:Reel
C:Paddy Fahy
S:Paddy Fahy & Cathleen Collins
M:4/4
L:1/8
K:Dm
D2 A,D FEFG| Adce d3 e | f2df edcA | d2AG  FDEC |
D2 A,D FEFG | Adce d4  | fedf edcA | d2 AG  FDD2 |
D A,~A,2  FEFG | Adce d3 e | fedf edcA | d2 AG  FDEC |
D2A,D FEFG | Adce d3 e | f2df edcA | dc AG  FD{E}D2 |
A d (3ddd  adBd | c3G EFGB | Adcd adBd  c3 d edcB |
a2ga ABcA | dcAG FDEC | D2A,D FEFG | Adce d4 |
Adcd adBd | c3 G EFGB | Adcd adBd | c2 d edcB |
aaga ABcA | dcAG FDEC | D2A,D FEFG | Adce d4 |
